Numix/16/status/indicator-keyboard-Ku-2.svg

<?xml version="1.0" encoding="UTF-8" standalone="no"?>
<svg
   xmlns:dc="http://purl.org/dc/elements/1.1/"
   xmlns:cc="http://creativecommons.org/ns#"
   xmlns:rdf="http://www.w3.org/1999/02/22-rdf-syntax-ns#"
   xmlns:svg="http://www.w3.org/2000/svg"
   xmlns="http://www.w3.org/2000/svg"
   xmlns:sodipodi="http://sodipodi.sourceforge.net/DTD/sodipodi-0.dtd"
   xmlns:inkscape="http://www.inkscape.org/namespaces/inkscape"
   viewBox="0 0 16 16"
   id="svg2"
   version="1.1"
   inkscape:version="0.91 r13725"
   sodipodi:docname="indicator-keyboard-Ku-2.svg">
  <metadata
     id="metadata14">
    <rdf:RDF>
      <cc:Work
         rdf:about="">
        <dc:format>image/svg+xml</dc:format>
        <dc:type
           rdf:resource="http://purl.org/dc/dcmitype/StillImage" />
      </cc:Work>
    </rdf:RDF>
  </metadata>
  <defs
     id="defs12" />
  <sodipodi:namedview
     pagecolor="#ffffff"
     bordercolor="#666666"
     borderopacity="1"
     objecttolerance="10"
     gridtolerance="10"
     guidetolerance="10"
     inkscape:pageopacity="0"
     inkscape:pageshadow="2"
     inkscape:window-width="640"
     inkscape:window-height="480"
     id="namedview10"
     showgrid="false"
     inkscape:zoom="14.75"
     inkscape:cx="8"
     inkscape:cy="8"
     inkscape:window-x="65"
     inkscape:window-y="24"
     inkscape:window-maximized="0"
     inkscape:current-layer="svg2" />
  <path
     style="fill:#ececec;fill-opacity:1"
     d="M 1.5996094 0 C 0.71320937 2.9605947e-16 0 0.71320937 0 1.5996094 L 0 14.400391 C 2.9605947e-16 15.286791 0.71320937 16 1.5996094 16 L 14.400391 16 C 15.286791 16 16 15.286791 16 14.400391 L 16 1.5996094 C 16 0.71320937 15.286791 0 14.400391 0 L 1.5996094 0 z M 1.7460938 4.859375 L 2.3574219 4.859375 L 2.3574219 7.765625 C 2.5854219 7.561625 2.8372812 7.3284531 3.1132812 7.0644531 C 3.3952812 6.7944531 3.6714063 6.5239062 3.9414062 6.2539062 C 4.2174062 5.9839063 4.4748438 5.7264687 4.7148438 5.4804688 C 4.9548438 5.2344688 5.1470156 5.027375 5.2910156 4.859375 L 6.0292969 4.859375 C 5.8552969 5.045375 5.6444375 5.2673906 5.3984375 5.5253906 C 5.1524375 5.7773906 4.8912344 6.0385937 4.6152344 6.3085938 C 4.3392344 6.5785938 4.0650625 6.845375 3.7890625 7.109375 C 3.5190625 7.367375 3.2745937 7.5949688 3.0585938 7.7929688 C 3.2325937 7.9009687 3.4191875 8.0352656 3.6171875 8.1972656 C 3.8211875 8.3532656 4.0245156 8.5287031 4.2285156 8.7207031 C 4.4385156 8.9067031 4.6437969 9.1044531 4.8417969 9.3144531 C 5.0457969 9.5184531 5.2342031 9.7255469 5.4082031 9.9355469 C 5.5882031 10.145547 5.7467656 10.348875 5.8847656 10.546875 C 6.0287656 10.744875 6.1463281 10.927703 6.2363281 11.095703 L 5.5527344 11.095703 C 5.3487344 10.783703 5.117375 10.475922 4.859375 10.169922 C 4.607375 9.8639217 4.3405938 9.5746875 4.0585938 9.3046875 C 3.7765937 9.0346875 3.4873594 8.7884063 3.1933594 8.5664062 C 2.9053594 8.3444062 2.6274219 8.1597656 2.3574219 8.0097656 L 2.3574219 11.095703 L 1.7460938 11.095703 L 1.7460938 4.859375 z M 7.0507812 6.4433594 L 7.6367188 6.4433594 L 7.6367188 8.8632812 C 7.6367188 9.1932813 7.6609844 9.4731719 7.7089844 9.7011719 C 7.7569844 9.9291721 7.8353594 10.115766 7.9433594 10.259766 C 8.0513594 10.397766 8.1894219 10.498453 8.3574219 10.564453 C 8.5314219 10.624453 8.7403281 10.654297 8.9863281 10.654297 C 9.2623281 10.654297 9.5030313 10.639375 9.7070312 10.609375 C 9.9110312 10.579375 10.03975 10.553297 10.09375 10.529297 L 10.09375 6.4433594 L 10.677734 6.4433594 L 10.677734 10.933594 C 10.503734 10.981594 10.270562 11.035703 9.9765625 11.095703 C 9.6825625 11.155703 9.3224844 11.185547 8.8964844 11.185547 C 8.5484844 11.185547 8.2574375 11.135203 8.0234375 11.033203 C 7.7894375 10.931203 7.6010313 10.787563 7.4570312 10.601562 C 7.3130312 10.415563 7.2085781 10.189781 7.1425781 9.9257812 C 7.0825781 9.6617812 7.0507812 9.3707344 7.0507812 9.0527344 L 7.0507812 6.4433594 z M 12.927734 8.7539062 C 13.321634 8.7539062 13.617506 8.851875 13.816406 9.046875 C 14.015306 9.237975 14.115234 9.5044563 14.115234 9.8476562 C 14.115234 9.9997563 14.087803 10.14475 14.033203 10.28125 C 13.978603 10.41385 13.904147 10.543169 13.810547 10.667969 C 13.720847 10.792769 13.617 10.912297 13.5 11.029297 C 13.383 11.146297 13.263478 11.263859 13.142578 11.380859 C 13.041178 11.478359 12.943203 11.578288 12.845703 11.679688 C 12.752103 11.777188 12.665891 11.877116 12.587891 11.978516 C 12.513791 12.076016 12.45305 12.172031 12.40625 12.269531 C 12.36335 12.363131 12.341797 12.457181 12.341797 12.550781 L 12.341797 12.5625 L 14.253906 12.5625 L 14.253906 12.896484 L 11.919922 12.896484 C 11.919922 12.888684 11.917996 12.874969 11.914062 12.855469 L 11.914062 12.755859 C 11.914062 12.572559 11.947372 12.402094 12.013672 12.246094 C 12.079972 12.086194 12.164225 11.937275 12.265625 11.796875 C 12.370925 11.656475 12.486528 11.525197 12.611328 11.404297 C 12.740028 11.283397 12.863469 11.165834 12.980469 11.052734 C 13.077969 10.959134 13.168106 10.869003 13.253906 10.783203 C 13.343606 10.693503 13.421981 10.603366 13.488281 10.509766 C 13.554581 10.416166 13.607484 10.316237 13.646484 10.210938 C 13.685484 10.105638 13.705078 9.9900344 13.705078 9.8652344 C 13.705078 9.5922344 13.630622 9.39825 13.482422 9.28125 C 13.338122 9.16035 13.155894 9.0996094 12.933594 9.0996094 C 12.808794 9.0996094 12.697109 9.1152844 12.599609 9.1464844 C 12.502109 9.1776844 12.415897 9.2149125 12.341797 9.2578125 C 12.271597 9.2968125 12.210856 9.3379594 12.160156 9.3808594 C 12.109456 9.4237594 12.072228 9.4570688 12.048828 9.4804688 L 11.849609 9.2167969 C 11.873009 9.1894969 11.914156 9.1503094 11.972656 9.0996094 C 12.035056 9.0450094 12.111472 8.9921062 12.201172 8.9414062 C 12.294772 8.8907063 12.402537 8.8476 12.523438 8.8125 C 12.644337 8.7735 12.779534 8.7539063 12.927734 8.7539062 z "
     id="path4" />
</svg>

<svg xmlns="http://www.w3.org/2000/svg" viewBox="0 0 16 16">
 <path d="m 1.6 0 c -0.886 0 -1.6 0.713 -1.6 1.6 l 0 12.801 c 0 0.886 0.713 1.6 1.6 1.6 l 12.801 0 c 0.886 0 1.6 -0.713 1.6 -1.6 l 0 -12.801 c 0 -0.886 -0.713 -1.6 -1.6 -1.6 l -12.801 0 z m 0.146 4.859 l 0.611 0 l 0 2.906 c 0.228 -0.204 0.48 -0.437 0.756 -0.701 c 0.282 -0.27 0.558 -0.541 0.828 -0.811 c 0.276 -0.27 0.533 -0.527 0.773 -0.773 c 0.24 -0.246 0.432 -0.453 0.576 -0.621 l 0.738 0 c -0.174 0.186 -0.385 0.408 -0.631 0.666 c -0.246 0.252 -0.507 0.513 -0.783 0.783 c -0.276 0.27 -0.55 0.537 -0.826 0.801 c -0.27 0.258 -0.514 0.486 -0.73 0.684 c 0.174 0.108 0.361 0.242 0.559 0.404 c 0.204 0.156 0.407 0.331 0.611 0.523 c 0.21 0.186 0.415 0.384 0.613 0.594 c 0.204 0.204 0.392 0.411 0.566 0.621 c 0.18 0.21 0.339 0.413 0.477 0.611 c 0.144 0.198 0.262 0.381 0.352 0.549 l -0.684 0 c -0.204 -0.312 -0.435 -0.62 -0.693 -0.926 c -0.252 -0.306 -0.519 -0.595 -0.801 -0.865 c -0.282 -0.27 -0.571 -0.516 -0.865 -0.738 c -0.288 -0.222 -0.566 -0.407 -0.836 -0.557 l 0 3.086 l -0.611 0 l 0 -6.236 z m 5.305 1.584 l 0.586 0 l 0 2.42 c 0 0.33 0.024 0.61 0.072 0.838 c 0.048 0.228 0.126 0.415 0.234 0.559 c 0.108 0.138 0.246 0.239 0.414 0.305 c 0.174 0.06 0.383 0.09 0.629 0.09 c 0.276 0 0.517 -0.015 0.721 -0.045 c 0.204 -0.03 0.333 -0.056 0.387 -0.08 l 0 -4.086 l 0.584 0 l 0 4.49 c -0.174 0.048 -0.407 0.102 -0.701 0.162 c -0.294 0.06 -0.654 0.09 -1.08 0.09 c -0.348 0 -0.639 -0.05 -0.873 -0.152 c -0.234 -0.102 -0.422 -0.246 -0.566 -0.432 c -0.144 -0.186 -0.248 -0.412 -0.314 -0.676 c -0.06 -0.264 -0.092 -0.555 -0.092 -0.873 l 0 -2.609 z m 5.877 2.311 c 0.394 0 0.69 0.098 0.889 0.293 c 0.199 0.191 0.299 0.458 0.299 0.801 c 0 0.152 -0.027 0.297 -0.082 0.434 c -0.055 0.133 -0.129 0.262 -0.223 0.387 c -0.09 0.125 -0.194 0.244 -0.311 0.361 c -0.117 0.117 -0.237 0.235 -0.357 0.352 c -0.101 0.098 -0.199 0.197 -0.297 0.299 c -0.094 0.098 -0.18 0.197 -0.258 0.299 c -0.074 0.097 -0.135 0.194 -0.182 0.291 c -0.043 0.094 -0.064 0.188 -0.064 0.281 l 0 0.012 l 1.912 0 l 0 0.334 l -2.334 0 c 0 -0.008 -0.002 -0.022 -0.006 -0.041 l 0 -0.1 c 0 -0.183 0.033 -0.354 0.1 -0.51 c 0.066 -0.16 0.151 -0.309 0.252 -0.449 c 0.105 -0.14 0.221 -0.272 0.346 -0.393 c 0.129 -0.121 0.252 -0.238 0.369 -0.352 c 0.098 -0.094 0.188 -0.184 0.273 -0.27 c 0.09 -0.09 0.168 -0.18 0.234 -0.273 c 0.066 -0.094 0.119 -0.194 0.158 -0.299 c 0.039 -0.105 0.059 -0.221 0.059 -0.346 c 0 -0.273 -0.074 -0.467 -0.223 -0.584 c -0.144 -0.121 -0.327 -0.182 -0.549 -0.182 c -0.125 0 -0.236 0.016 -0.334 0.047 c -0.097 0.031 -0.184 0.068 -0.258 0.111 c -0.07 0.039 -0.131 0.08 -0.182 0.123 c -0.051 0.043 -0.088 0.076 -0.111 0.1 l -0.199 -0.264 c 0.023 -0.027 0.065 -0.066 0.123 -0.117 c 0.062 -0.055 0.139 -0.108 0.229 -0.158 c 0.094 -0.051 0.201 -0.094 0.322 -0.129 c 0.121 -0.039 0.256 -0.059 0.404 -0.059 z" style="fill:#ececec;fill-opacity:1"/>
</svg>
